X:1
T:Suite No. 3 for Solo Violin
T:Suite No. 3 for Solo Violin
T:in B-Flat Major
T:Johann Paul von Westhoff
C:J. P. von Westhoff
%%score ( 1 2 3 4 )
L:1/8
Q:1/4=60
M:4/4
K:Bb
V:1 treble nm="Violin" snm="Vln."
V:2 treble 
V:3 treble 
V:4 treble 
V:1
"^Allemande" b | b2 ag Tf3 e | dc B>_A G3 F | GABc de fg/a/ | b2 b>b ba/g/ ag/f/ | %5
 =e/d/c/B/ f2 g2 f2 | =e2 f>f fg/f/ e>e | ffff f3 :: f | f2 x2 fa ba/g/ | ^f2 g>g ga/g/ f>f | %11
 g>g =f>e dc TB>_A | B3 x ee e>e | (ed) d2 f>b _aa | g2 x2 =ec' b2 | a2 b>b bc'/b/ a>a | %16
 b>B BB B3 :|[M:3/2][Q:1/4=280]"^Courante" b4 | b6 f2 g4 | g4 Tf6 e2 | d4 Tc6 B2 | A6 B2 A4 | %22
 B4 TB6 _A2 | B6 B2 =A4 | B4 TB6 A2 | B6 F2 G2 A2 | B6 c2 d2 e2 | f6 f2 f2 f2 | g6 a2 g2 f2 | %29
 =e8 f4 | f4 f6 =e2 | [Fcf]8 :: c4 | c6 c2 c4 | d2 c2 B6 _A2 | B6 d2 e2 f2 | g2 f2 e6 d2 | %37
 c6 d2 c2 B2 | A2 f2 g4 a4 | b6 a2 g2 f2 | =e6 e2 e4 | f4 f6 =e2 | f6 f2 f2 f2 | f6 b2 _a2 a2 | %44
 g4 f8 | g4 a6 a2 | [B,Fdb]8 :|[M:3/1][Q:1/4=160]"^Sarabande" b8 Ta12 g4 | [Bdf]8 [EBg]16 | %49
 g8 Tf12 e4 | [B,Fd]8 [A,Fc]16 | b4 a4 Tg12 f4 | [C=Ec=e]8 [CEBe]16 | [Fcf]8 Tf12 =e4 | %54
 [Acf]8 F16 :: f8 f12 e4 | [B,Fd]8 [CEc]16 | B8 TB12 _A4 | [EGB]8 [DF=B]16 | c8 f12 f4 | %60
 e8 e12 c4 | d8 Tc12 c4 | [DFB]8 [B,FB]16 :|[M:12/4][Q:1/4=360]"^Gigue" b4 g2 f4 d2 e4 f2 d4 B2 | %64
 f4 d2 c4 A2 B4 c2 A4 F2 | B4 B2 B4 B2 B4 B2 B6 | B4 B2 B4 B2 B4 B2 B6 | e4 c2 B4 G2 _A4 B2 G4 E2 | %68
 B4 G2 F4 D2 E4 F2 D4 D2 | b4 b2 _a6 f4 f2 f6 | b4 g2 f4 d2 e4 f2 d4 B2 | f4 d2 c4 A2 B4 c2 A6 | %72
 f4 f2 f4 f2 f4 f2 f6 |!f! f4 f2 f6!p! f4 f2 f6 |!f! f4 f2 =e4 f2 f4 e2 f6 | %75
!p! f4 f2 =e4 f2 f4 e2 f6 ::!f! c'4 b2 a4 g2 f4 e2 d4 c2 | B6 B6 A4 B2 c4 B2 | %78
 f4 e2 d4 c2 B4 A2 B6 | B6 B6 B6 A4 c2 | a4 g2 f4 e2 d4 c2 B6 | c4 B2 f6 f4 =e2 f6 | %82
 F4 G2 A4 B2 c4 d2 e4 f2 | g4 f2 e4 d2 c4 B2 A6 | B4 c2 d4 e2 f4 g2 a4 f2 | %85
 b4 a2 g4 f2 e4 d2 c4 A2 | B6 B6 A4 c2 f4 f2 | e4 d2 c4 B2 B4 A2 B6 :| %88
V:2
 x | B,G, A,2 F3 G | F2 F2 E3 F | E2 FA F2 F2 | G,2 c2 c2 c2 | c2 AG/F/ =E/D/C/B,/ A,/G,/A,/B,/ | %6
 C2 FF G2 G2 | A>B c=e c3 :: x | F>DCB, F2 D2 | D2 D2 D2 D2 | B2 c2 FE F2 | E3 D CB, A,2 | %13
 B,2 B,C F2 DG, | E2 TE>D =E2 B2 | _e2 d2 c4 | F>E FA F3 :|[M:3/2] x4 | d6 d2 e4 | e4 c8 | F4 =E8 | %21
 F6 G2 F2 E2 | F4 F8 | G6 G2 F4 | F4 E8 | F6 x2 x4 | F6 x2 x4 | c6 x2 x4 | B6 x6 | C6 B,2 A,4 | %30
 d4 B8 | x8 :: x4 | A8 A4 | D4 D8 | G4 x8 | B4 [G,G]8 | F6 B2 A2 G2 | F2 d2 e4 c4 | d6 c2 B2 A2 | %40
 c6 c2 c4 | A,2 B,2 [CGB]8 | c4 x2 x2 e4 | d4 x4 d4 | B4 B8 | e4 [Fe]8 | x8 :| %47
[M:3/1] [B,Fd]8 [Fc]16 | x24 | [G,Ec]8 [A,Fc]16 | x24 | [B,Fd]8 [B,Gd]16 | x24 | A,4 B,4 [CGB]16 | %54
 x24 :: [Fc]8 [A,Fc]16 | x24 | [DF]8 [B,F]16 | x24 | [CE]8 [G,Dc]12 =B4 | [CG]8 [A,F]16 | %61
 [B,F]8 F12 E4 | x24 :|[M:12/4] x24 | d4 B2 A4 F2 G4 A2 F4 F2 | G4 E2 D4 B,2 C4 D2 B,6 | %66
 B,4 C2 D4 C2 D4 B,2 E6 | x24 | G4 E2 D4 B,2 C4 D2 B,4 _A,2 | E4 E2 E6 F4 F2 F6 | x24 | %71
 d4 B2 A4 F2 G4 A2 F6 | F4 G2 A4 G2 A4 F2 B6 | B4 B2 A6 B4 B2 A6 | B4 B2 B4 A2 G4 G2 F6 | %75
 B4 B2 B4 A2 G4 G2 F6 :: x24 | B,4 C2 D4 E2 F4 G2 A4 G2 | A,6 F6 F6 E4 B,2 | %79
 G,4 A,2 B,4 C2 D4 E2 F6 | F6 F6 F6 G4 F2 | G,6 A,4 B,2 C6 c6 | x24 | e4 d2 G6 =E6 C4 E2 | %84
 F6 F6 F6 F6 | D6 E6 G6 A4 F2 | B,4 C2 D4 E2 F4 A2 B4 A2 | G4 F2 E4 D2 C6 F6 :| %88
V:3
 x | d2 c2 d3 C | D2 D2 x4 | x2 DC B,2 c2 | DF E2 F2 F2 | =E2 c2 c2 c2 | B2 cd B2 B2 | F>G AG F3 :: %8
 x | c2 x2 c2 d2 | dc B2 A2 A2 | D2 F2 B,C D2 | G3 z GG F2 | F2 F2 B2 cd | B2 z2 c2 d=e | %15
 F2 F2 F4 | d2 DC B,3 :|[M:3/2] x4 | F6 x2 x4 | G4 F8 | B,2 D2 G,8 | C6 x2 x4 | D4 B,8 | E6 E2 E4 | %24
 D4 C8 | B,6 x2 x4 | B,6 x2 x4 | F6 x2 x4 | D6 x6 | c8 c4 | F4 G8 | x8 :: x4 | F4 x4 F2 E2 | %34
 B4 F8 | E4 x8 | E4 x8 | A,4 x8 | x4 E4 F4 | F4 x8 | [G,B]12 | c4 x8 | F4 x4 F4 | B,4 x4 B,4 | %44
 E4 D8 | G4 x8 | x8 :|[M:3/1] x24 | x24 | x24 | x24 | x24 | x24 | x24 | x24 :: x24 | x24 | x24 | %58
 x24 | x8 x12 D4 | x24 | x24 | x24 :|[M:12/4] x24 | x24 | x4 G2 F4 D2 E4 F2 F6 | %66
 D4 E2 F4 E2 F4 D2 G6 | x24 | x24 | B4 B2 c6 c4 c2 d6 | x24 | x24 | A4 B2 c4 B2 c4 A2 d6 | %73
 d4 d2 c6 d4 d2 c6 | d4 d2 c4 c2 B4 B2 c6 | d4 d2 c4 c2 B4 B2 c6 :: x24 | F6 F6 x4 x2 x4 x2 | %78
 F6 B,6 D6 G6 | E6 D4 E2 F6 x6 | A,6 A,6 B,6 G,6 | =E6 c6 B6 F6 | x24 | B6 C6 G,6 F6 | %84
 B,6 B,6 A,6 A,6 | f6 B6 C6 x2 x4 | F4 E2 x6 x6 d4 c2 | x12 E6 B,6 :| %88
V:4
 x | F2 F2 B,3 x | x8 | x6 A,2 | d2 G,2 x4 | C2 x2 x2 F2 | =E2 A,B, G,2 C2 | x7 :: x | x4 A,2 G,2 | %10
 x8 | G,2 A,2 x4 | x8 | x4 D2 DD | x4 C2 x2 | x8 | B,>C x2 x3 :|[M:3/2] x4 | B,6 x2 x4 | G,4 A,8 | %20
 x12 | x12 | x12 | x12 | x12 | x12 | x12 | A,6 x2 x4 | G,6 x6 | =E8 F4 | B,4 G,8 | x8 :: x4 | x12 | %34
 x12 | x12 | G,4 x8 | x12 | x12 | B,4 x8 | x12 | F4 x8 | x8 A,4 | F4 x4 F4 | x12 | C4 x8 | x8 :| %47
[M:3/1] x24 | x24 | x24 | x24 | x24 | x24 | x24 | x24 :: x24 | x24 | x24 | x24 | x8 x12 G,4 | x24 | %61
 x24 | x24 :|[M:12/4] x24 | x24 | x24 | x24 | x24 | x24 | G,4 G,2 _A,6 =A,4 A,2 B,6 | x24 | x24 | %72
 x24 | x24 | x24 | x24 :: x24 | x24 | c6 x6 x6 x6 | x24 | c6 x6 x6 x6 | x6 F6 x6 x6 | x24 | %83
 G,6 x6 x12 | x12 c6 c6 | G,6 G,6 x12 | x24 | x24 :| %88

